Origami/16x16/apps/peek.svg

<svg width="16" height="16" version="1.1" viewBox="0 0 16 16" xmlns="http://www.w3.org/2000/svg">
 <path d="m8 0a8 8 0 0 0 -8 8 8 8 0 0 0 8 8 8 8 0 0 0 8 -8 8 8 0 0 0 -8 -8z" style="fill:#ff8e20"/>
 <path d="m8 0c-0.3061026 3.6951942e-4 -0.6115963 0.021472582-0.9140625 0.056640625a8 8 0 0 0 -0.2246094 0.03515625c-0.2238294 0.032511905-0.4459995 0.071765815-0.6660156 0.12304688a8 8 0 0 0 -0.2636719 0.06835937c-0.2289051 0.06166012-0.4549086 0.13104273-0.6777344 0.21289063a8 8 0 0 0 -0.1660156 0.06054687c-0.2830097 0.1111207-0.5621262 0.2355111-0.8320312 0.37890626l-2.4023438 12.181641c0.3859199 0.461196 0.8208544 0.876493 1.296875 1.238281 0.2349948 0.178602 0.4807408 0.344353 0.734375 0.496093 0.0102472 0.006131 0.0209743 0.011493 0.03125 0.017579 0.2475943 0.146623 0.5025022 0.280918 0.765625 0.40039a8 8 0 0 0 0.0097656 0.003907l0.9257813-5.273438c0.8556892 0.04862 1.9066392 0.07487 3-0.0742188 1.2650712-0.1725136 2.2254145-0.534269 3.3867185-1.4316406 1.161306-0.897372 1.996094-1.8743117 1.996094-3.6933594 0-0.5962159-0.076703-1.6322601-0.208984-2.3066406a8 8 0 0 0 -5.791016 -2.4941406zm-0.0078125 1.9941406c0.3258861 0.0142022 0.6459161 0.0396069 0.9570313 0.0605469 0.6429538 0.106668 1.1530652 0.3476999 1.4687502 0.6933594 0.315683 0.3456595 0.582031 0.8318339 0.582031 2.0566406 0 1.116417-0.266757 1.7128016-0.759766 2.1425781-0.4930084 0.4297765-1.3400211 0.8021701-2.2832028 0.9472656-0.6661717 0.1024819-1.3482334 0.1257643-1.9570312 0.1054688l1-6c0.3345591-0.0230615 0.6663014-0.0200615 0.9921875-0.0058594z" style="fill:#ffffff"/>
</svg>

<svg xmlns="http://www.w3.org/2000/svg" width="16" height="16" version="1.1" viewBox="0 0 16 16">
 <path style="fill:#ff8e20" d="M 8,0 A 8,8 0 0 0 0,8 8,8 0 0 0 8,16 8,8 0 0 0 16,8 8,8 0 0 0 8,0 Z"/>
 <path style="fill:#ffffff" d="M 8 0 C 7.6938974 0.00036951942 7.3884037 0.021472582 7.0859375 0.056640625 A 8 8 0 0 0 6.8613281 0.091796875 C 6.6374987 0.12430878 6.4153286 0.16356269 6.1953125 0.21484375 A 8 8 0 0 0 5.9316406 0.28320312 C 5.7027355 0.34486324 5.476732 0.41424585 5.2539062 0.49609375 A 8 8 0 0 0 5.0878906 0.55664062 C 4.8048809 0.66776132 4.5257644 0.79215172 4.2558594 0.93554688 L 1.8535156 13.117188 C 2.2394355 13.578384 2.67437 13.993681 3.1503906 14.355469 C 3.3853854 14.534071 3.6311314 14.699822 3.8847656 14.851562 C 3.8950128 14.857693 3.9057399 14.863055 3.9160156 14.869141 C 4.1636099 15.015764 4.4185178 15.150059 4.6816406 15.269531 A 8 8 0 0 0 4.6914062 15.273438 L 5.6171875 10 C 6.4728767 10.04862 7.5238267 10.07487 8.6171875 9.9257812 C 9.8822587 9.7532676 10.842602 9.3915122 12.003906 8.4941406 C 13.165212 7.5967686 14 6.6198289 14 4.8007812 C 14 4.2045653 13.923297 3.1685211 13.791016 2.4941406 A 8 8 0 0 0 8 0 z M 7.9921875 1.9941406 C 8.3180736 2.0083428 8.6381036 2.0337475 8.9492188 2.0546875 C 9.5921726 2.1613555 10.102284 2.4023874 10.417969 2.7480469 C 10.733652 3.0937064 11 3.5798808 11 4.8046875 C 11 5.9211045 10.733243 6.5174891 10.240234 6.9472656 C 9.7472256 7.3770421 8.9002129 7.7494357 7.9570312 7.8945312 C 7.2908595 7.9970131 6.6087978 8.0202955 6 8 L 7 2 C 7.3345591 1.9769385 7.6663014 1.9799385 7.9921875 1.9941406 z"/>
</svg>
